!!!!SEGMENT: pl-sa--481-a-viii-121--050_anonim--polonez.krn
!!!cenid: 18xx:421
!!!COM: Anonim
!!!COM-rismID: pe30004985
!!!CDT:
!!!CNT:
!!!OTL: Polonez
!!!PDT:
!!!AGN: Secular; Polonaise
!!!SMS-siglum: PL-SA
!!!SMS-shelfmark: 481/A VIII 121
!!!SMS-shelfwork: 050 W
!!!SMS-variant:
!!!SMS-altvar:
!!!NIFC-rismSourceID: 1001070738
!!!NIFC-rismChildID: 1001070738
!!!NIFC-islandoraID: none
!!!URL-pdf-islandora:
!!!URL-scan: https://bc.bdsandomierz.pl/dlibra/publication/1212/edition/1171/content @EN{Scan in the Sandomierz Diocese Digital Library} @PL{Skany w portalu Cyfrowa Biblioteka Diecezjalna w Sandomierzu}
!!!IIIF:
!!!ONB-nifc: Str. 35, s. 2-4
!!!AIN: 1 piano
!!!key:
**kern	**kern
*part1	*part1
*staff2	*staff1
*Ipiano	*Iempty
*I"Piano	*
*I'P-no	*
*clefF4	*clefG2
*k[]	*k[]
*C:	*C:
*M3/4	*M3/4
*>[A,A,B,B,A,C,C,D,D,C]	*>[A,A,B,B,A,C,C,D,D,C]
=1	=1
*>A	*>A
!	!LO:TX:a:i:t=Polo
4C 4CC/	8.gg\L
.	16ee\Jk
8r	4.cc\
8eL 8c 8G\	.
8e 8c 8G\	.
8eJ 8c 8G\	8ee\
=2	=2
4G 4GG/	8.gg\L
.	16ff\Jk
8r	4.dd\
8fL 8d 8G\	.
8f 8d 8G\	.
8fJ 8d 8G\	8ff\
=3	=3
4C 4CC/	8.gg\L
.	16ee\Jk
8r	4.cc\
8eL 8c 8G\	.
8e 8c 8G\	.
8eJ 8c 8G\	8ee\
=4	=4
4d 4B 4G\	16g\LL
.	16a\
.	16b\
.	16cc\JJ
4d 4B 4G\	16dd\LL
.	16b\
.	16gg\
.	16dd\JJ
4r	16cc\LL
.	16b\
.	16a\
.	16g\JJ
=5	=5
16C\LL	16gg\LL
16G\	16ff#X\
16E\	16gg\
16G\JJ	16ee\JJ
*rep	*
16C\LL	8cc\L
16G\	.
16E\	8cc\
16G\JJ	.
*Xrep	*
*rep	*
16C\LL	8cc\
16G\	.
16E\	8ee\J
16G\JJ	.
*Xrep	*
=6	=6
16D\LL	16gg\LL
16G\	16ff#X\
16F\	16gg\
16G\JJ	16ffn\JJ
*rep	*
16D\LL	8dd\L
16G\	.
16F\	8dd\
16G\JJ	.
*Xrep	*
*rep	*
16D\LL	8dd\
16G\	.
16F\	8ff\J
16G\JJ	.
*Xrep	*
!LO:LB:g=original	!LO:LB:g=original
=7	=7
4C\	16ee\LL
.	16cc\
.	16b\
.	16cc\JJ
4E\	16dd\LL
.	16ee\
.	16ff\
.	16gg\JJ
4F\	16gg#X\LL
.	16aa\
.	16ff\
.	16dd\JJ
=8	=8
4G\	16cc\LL
.	16b\
.	16ee\
.	16dd\JJ
8r	4dd\
8GG/	.
4C/	4cc\
=9:|!|:	=9:|!|:
*>B	*>B
16BB\LL	8g\L
16G\	.
16D\	16b\L
16G\JJ	16dd\JJ
*rep	*
16BB\LL	8ff\L
16G\	.
16D\	8ff\
16G\JJ	.
*Xrep	*
*rep	*
16BB\LL	8dd\
16G\	.
16D\	8b\J
16G\JJ	.
*Xrep	*
=10	=10
16C\LL	8g\L
16G\	.
16E\	16cc\L
16G\JJ	16ee\JJ
*rep	*
16C\LL	8gg\L
16G\	.
16E\	8gg\
16G\JJ	.
*Xrep	*
*rep	*
16C\LL	8ee\
16G\	.
16E\	8cc\J
16G\JJ	.
*Xrep	*
=11	=11
4F\	8a\
.	4a\
4F\	.
.	16cc\LL
.	16b\JJ
4F#X\	16dd\LL
.	16cc\
.	16b\
.	16a\JJ
=12	=12
4G\	16g/LL
.	16f#X/
.	16b/
.	16a/JJ
!	!LO:TX:a:t=Da Capo
.	8qqa/
8r	2g/
8GG/	.
4C\	.
=13:|!|:;;	=13:|!|:;;
*>C	*>C
*clefG2	*clefG2
*M3/4	*M3/4
!	!LO:TX:a:t=Trio
8eL 8c/	8gg\L
8g/J	16aa\L
.	16gg\JJ
*rep	*
8eL 8c/	8ee\L
8g/J	8gg\
*Xrep	*
*rep	*
8eL 8c/	8ccc\
8g/J	8eee\J
*Xrep	*
=14	=14
8fL 8d/	8.fff\L
8g/J	.
.	16ddd\Jk
*rep	*
8fL 8d/	8.fff\L
8g/J	.
.	16ddd\Jk
*Xrep	*
*rep	*
8fL 8d/	16ccc\LL
.	16bb\
8g/J	16aa\
.	16gg\JJ
*Xrep	*
!LO:LB:g=original	!LO:LB:g=original
=15	=15
8eL 8c/	8gg\L
8g/J	16aa\L
.	16gg\JJ
*rep	*
8eL 8c/	8ee\L
8g/J	8gg\
*Xrep	*
*rep	*
8eL 8c/	8ccc\
8g/J	8eee\J
*Xrep	*
=16	=16
4f 4d/	16ddd\LL
.	16fff\JJ
.	16bb\LL
.	16ddd\JJ
8r	4ddd\
8f 8d/	.
4g 4e 4c/	4ccc\
=17:|!|:	=17:|!|:
*>D	*>D
*clefF4	*
!LO:TX:t=P:problem=mixed beam	!
8GG/L	4.b 4.g/
8G\J	.
*tremolo	*
*2\right	*
8G\L	.
8G\	8cc 8a/
8G\	8ddL 8b/
8G\J	8eeJ 8cc/
=18	=18
*rep	*
8GG/L	8.ffL 8.dd\
8G\J	.
.	16eeJk 16cc\
8G\L	8.ffL 8.dd\
8G\	.
.	16eeJk 16cc\
8G\	4dd 4b\
8G\J	.
*Xrep	*
=19	=19
!LO:TX:t=P:problem=mixed beam	!
8C/L	4.cc 4.e/
8c\J	.
8c\L	.
8c\	8dd 8b\
8c\	8eeL 8cc\
8c\J	8ffJ 8dd\
*Xtremolo	*
=20	=20
4C/	8.ggL 8.ee\
.	16ff#XJk 16dd#X\
4c\	8.ggL 8.ee\
.	16ff#XJk 16dd#\
!	!LO:TX:a:i:t=Da Capo Trio
4C/	4ee 4cc\
==:|!;;	==:|!;;
*-	*-
!!!system-decoration: {s1,s2}
!!!ENC: Marta Lawrence
!!!END: 2020-11-23
!!!ENC: Anastazja Marusiak
!!!END: 2020-06-15
!!!YEC: Copyright 2022 Narodowy Instytut Fryderyka Chopina (https://polishscores.org)
!!!YEM: License CC-BY-4.0 (https://creativecommons.org/licenses/by/4.0)
